X: 48
T: WINDSOR TERRACE
T: The Dawning of the Day
B: "Old English Country Dances", Frank Kidson ed., William Reeves pub., London 1890
Z: 2010-9-26 John Chambers <jc:trillian.mit.edu>
M: C
L: 1/8
K: Dm
d2Af e3A | dfed ^c3B | AdGd FdEd | Dde^c d4 :|
|: affa g3g | affa g3f | efdf cfBf | Afge f2z2 |
af fb/a/ b/a/b2a |gfed ^c3B | AdGd FdEd | Dde^c d4 :|


%%sep 1 1 500

%%sep 1 1 500

